Suru++-Ubuntu/apps/symbolic/ibus-engine-symbolic.svg

<svg width="16" height="16" version="1.1" viewBox="0 0 4.23 4.23" xmlns="http://www.w3.org/2000/svg">
 <g transform="translate(0,-292.76666)">
  <g transform="matrix(.26458333 0 0 .26458333 -156.63333 234.42604)">
   <path transform="translate(591.99999,220.49998)" d="m3.9941406 0.5c-1.2582 0.0145-2.1788906-0.03060437-2.9316406 0.38476562-0.37636999 0.20765998-0.67323063 0.55938688-0.83789062 0.99804688-0.16467 0.43867-0.22460938 0.9595775-0.22460938 1.6171875v2 5 2s0.059899378 1.178528 0.22460938 1.617188c0.16466999 0.438659 0.46152063 0.790396 0.83789062 0.998046 0.75275 0.41532 1.6734506 0.370196 2.9316406 0.384766h0.0039063 8.0039061 0.003906c1.25819-0.0145 2.178891 0.030604 2.931641-0.384766 0.37637-0.20766 0.673221-0.559387 0.837891-0.998046 0.16323-0.43867 0.224609-0.959578 0.224609-1.617188v-2-5-2c0-0.65761-0.059899-1.1785175-0.224609-1.6171875-0.16466-0.43866-0.461521-0.7903869-0.837891-0.99804688-0.75275-0.41533999-1.673441-0.37024562-2.931641-0.38476562h-0.003906-8.0039061-0.0039063zm4.0058594 2.5a1.1764723 1.1764723 0 0 1 1.1757812 1.1757812 1.1764723 1.1764723 0 0 1-1.1757812 1.1777344 1.1764723 1.1764723 0 0 1-1.1757812-1.1777344 1.1764723 1.1764723 0 0 1 1.1757812-1.1757812zm-2.3535156 3.5292969h3.5292968v5.2949221h1.1777348v1.175781h-4.7070316v-1.175781h1.1777344v-4.1191409h-1.1777344v-1.1757812z" style="fill:#808080"/>
  </g>
 </g>
</svg>

<svg xmlns="http://www.w3.org/2000/svg" width="16" height="16" version="1.1" viewBox="0 0 4.23 4.23">
 <g transform="translate(0,-292.76666)">
  <g transform="matrix(0.26458333,0,0,0.26458333,-156.63333,234.42604)">
   <path style="fill:#808080" d="M 3.9941406 0.5 C 2.7359406 0.5145 1.81525 0.46939563 1.0625 0.88476562 C 0.68613001 1.0924256 0.38926937 1.4441525 0.22460938 1.8828125 C 0.059939378 2.3214825 0 2.84239 0 3.5 L 0 5.5 L 0 10.5 L 0 12.5 C 0 12.5 0.059899378 13.678528 0.22460938 14.117188 C 0.38927937 14.555847 0.68613001 14.907584 1.0625 15.115234 C 1.81525 15.530554 2.7359506 15.48543 3.9941406 15.5 L 3.9980469 15.5 L 12.001953 15.5 L 12.005859 15.5 C 13.264049 15.4855 14.18475 15.530604 14.9375 15.115234 C 15.31387 14.907574 15.610721 14.555847 15.775391 14.117188 C 15.938621 13.678518 16 13.15761 16 12.5 L 16 10.5 L 16 5.5 L 16 3.5 C 16 2.84239 15.940101 2.3214825 15.775391 1.8828125 C 15.610731 1.4441525 15.31387 1.0924256 14.9375 0.88476562 C 14.18475 0.46942563 13.264059 0.51452 12.005859 0.5 L 12.001953 0.5 L 3.9980469 0.5 L 3.9941406 0.5 z M 8 3 A 1.1764723 1.1764723 0 0 1 9.1757812 4.1757812 A 1.1764723 1.1764723 0 0 1 8 5.3535156 A 1.1764723 1.1764723 0 0 1 6.8242188 4.1757812 A 1.1764723 1.1764723 0 0 1 8 3 z M 5.6464844 6.5292969 L 9.1757812 6.5292969 L 9.1757812 11.824219 L 10.353516 11.824219 L 10.353516 13 L 5.6464844 13 L 5.6464844 11.824219 L 6.8242188 11.824219 L 6.8242188 7.7050781 L 5.6464844 7.7050781 L 5.6464844 6.5292969 z" transform="translate(591.99999,220.49998)"/>
  </g>
 </g>
</svg>
